img/twitter-icon.svg

<?xml version="1.0" encoding="UTF-8"?>
<svg xmlns="http://www.w3.org/2000/svg" xmlns:xlink="http://www.w3.org/1999/xlink" viewBox="0 0 50 50" version="1.1" width="50px" height="50px">
<g id="surface1">
<path style=" " d="M 50.0625 10.4375 C 48.214844 11.257813 46.234375 11.808594 44.152344 12.058594 C 46.277344 10.785156 47.910156 8.769531 48.675781 6.371094 C 46.691406 7.546875 44.484375 8.402344 42.144531 8.863281 C 40.269531 6.863281 37.597656 5.617188 34.640625 5.617188 C 28.960938 5.617188 24.355469 10.21875 24.355469 15.898438 C 24.355469 16.703125 24.449219 17.488281 24.625 18.242188 C 16.078125 17.8125 8.503906 13.71875 3.429688 7.496094 C 2.542969 9.019531 2.039063 10.785156 2.039063 12.667969 C 2.039063 16.234375 3.851563 19.382813 6.613281 21.230469 C 4.925781 21.175781 3.339844 20.710938 1.953125 19.941406 C 1.953125 19.984375 1.953125 20.027344 1.953125 20.070313 C 1.953125 25.054688 5.5 29.207031 10.199219 30.15625 C 9.339844 30.390625 8.429688 30.515625 7.492188 30.515625 C 6.828125 30.515625 6.183594 30.453125 5.554688 30.328125 C 6.867188 34.410156 10.664063 37.390625 15.160156 37.472656 C 11.644531 40.230469 7.210938 41.871094 2.390625 41.871094 C 1.558594 41.871094 0.742188 41.824219 -0.0585938 41.726563 C 4.488281 44.648438 9.894531 46.347656 15.703125 46.347656 C 34.617188 46.347656 44.960938 30.679688 44.960938 17.09375 C 44.960938 16.648438 44.949219 16.199219 44.933594 15.761719 C 46.941406 14.3125 48.683594 12.5 50.0625 10.4375 Z "/>
</g>
</svg>

<svg xmlns="http://www.w3.org/2000/svg" viewBox="0 0 50 50" width="20" height="20"><path d="M50.063 10.438a20.57 20.57 0 0 1-5.91 1.62 10.309 10.309 0 0 0 4.523-5.687 20.648 20.648 0 0 1-6.531 2.492 10.258 10.258 0 0 0-7.504-3.246c-5.68 0-10.286 4.602-10.286 10.281 0 .805.094 1.59.27 2.344-8.547-.43-16.121-4.523-21.195-10.746a10.243 10.243 0 0 0-1.39 5.172c0 3.566 1.812 6.715 4.573 8.562a10.274 10.274 0 0 1-4.66-1.289v.13c0 4.984 3.547 9.136 8.246 10.085a10.29 10.29 0 0 1-4.644.172c1.312 4.082 5.11 7.063 9.605 7.145A20.613 20.613 0 0 1 2.39 41.87c-.831 0-1.648-.047-2.449-.144a29.053 29.053 0 0 0 15.762 4.62c18.914 0 29.258-15.667 29.258-29.253 0-.446-.012-.895-.027-1.332a20.904 20.904 0 0 0 5.129-5.325z"/></svg>
